presets/lightroom/CinemaxMK Fuji Retro - 02 Classic Chrome.xmp
<x:xmpmeta xmlns:x="adobe:ns:meta/" x:xmptk="Adobe XMP Core 7.0-c000 1.000000, 0000/00/00-00:00:00        ">
 <rdf:RDF xmlns:rdf="http://www.w3.org/1999/02/22-rdf-syntax-ns#">
  <rdf:Description rdf:about=""
    xmlns:crs="http://ns.adobe.com/camera-raw-settings/1.0/"
   crs:PresetType="Normal"
   crs:Cluster=""
   crs:UUID="D2B5DE111BFED54AF829AC94EA1507F3"
   crs:SupportsAmount="True"
   crs:SupportsColor="True"
   crs:SupportsMonochrome="True"
   crs:SupportsHighDynamicRange="True"
   crs:SupportsNormalDynamicRange="True"
   crs:SupportsSceneReferred="True"
   crs:SupportsOutputReferred="True"
   crs:CameraModelRestriction=""
   crs:Copyright="CinemaxMK"
   crs:ContactInfo=""
   crs:Version="15.0"
   crs:ConvertToGrayscale="False"
   crs:Contrast2012="+15"
   crs:Highlights2012="-25"
   crs:Shadows2012="-10"
   crs:Whites2012="+5"
   crs:Blacks2012="0"
   crs:Texture="0"
   crs:Clarity2012="+5"
   crs:Dehaze="0"
   crs:Vibrance="-15"
   crs:Saturation="-15"
   crs:ParametricShadows="0"
   crs:ParametricDarks="0"
   crs:ParametricLights="0"
   crs:ParametricHighlights="0"
   crs:ParametricShadowSplit="25"
   crs:ParametricMidtoneSplit="50"
   crs:ParametricHighlightSplit="75"
   crs:ToneCurveName2012="Custom"
   crs:HueAdjustmentRed="-3"
   crs:HueAdjustmentOrange="-5"
   crs:HueAdjustmentYellow="-10"
   crs:HueAdjustmentGreen="-10"
   crs:HueAdjustmentAqua="-5"
   crs:HueAdjustmentBlue="-20"
   crs:HueAdjustmentPurple="-10"
   crs:HueAdjustmentMagenta="-5"
   crs:SaturationAdjustmentRed="-5"
   crs:SaturationAdjustmentOrange="-10"
   crs:SaturationAdjustmentYellow="-25"
   crs:SaturationAdjustmentGreen="-20"
   crs:SaturationAdjustmentAqua="-20"
   crs:SaturationAdjustmentBlue="-30"
   crs:SaturationAdjustmentPurple="-25"
   crs:SaturationAdjustmentMagenta="-15"
   crs:LuminanceAdjustmentRed="-15"
   crs:LuminanceAdjustmentOrange="0"
   crs:LuminanceAdjustmentYellow="+5"
   crs:LuminanceAdjustmentGreen="-5"
   crs:LuminanceAdjustmentAqua="0"
   crs:LuminanceAdjustmentBlue="-20"
   crs:LuminanceAdjustmentPurple="-10"
   crs:LuminanceAdjustmentMagenta="-5"
   crs:SplitToningShadowHue="210"
   crs:SplitToningShadowSaturation="8"
   crs:SplitToningHighlightHue="45"
   crs:SplitToningHighlightSaturation="5"
   crs:SplitToningBalance="-10"
   crs:ColorGradeMidtoneHue="40"
   crs:ColorGradeMidtoneSat="3"
   crs:ColorGradeShadowLum="0"
   crs:ColorGradeMidtoneLum="0"
   crs:ColorGradeHighlightLum="0"
   crs:ColorGradeBlending="50"
   crs:ColorGradeGlobalHue="0"
   crs:ColorGradeGlobalSat="0"
   crs:ColorGradeGlobalLum="0"
   crs:ShadowTint="0"
   crs:RedHue="-5"
   crs:RedSaturation="-5"
   crs:GreenHue="+5"
   crs:GreenSaturation="-15"
   crs:BlueHue="-8"
   crs:BlueSaturation="+5"
   crs:GrainAmount="15"
   crs:GrainSize="25"
   crs:GrainFrequency="50"
   crs:PostCropVignetteAmount="-12"
   crs:PostCropVignetteMidpoint="50"
   crs:PostCropVignetteFeather="60"
   crs:PostCropVignetteRoundness="0"
   crs:PostCropVignetteStyle="1"
   crs:PostCropVignetteHighlightContrast="0"
   crs:HasSettings="True">
   <crs:Name>
    <rdf:Alt>
     <rdf:li xml:lang="x-default">02 Classic Chrome</rdf:li>
    </rdf:Alt>
   </crs:Name>
   <crs:ShortName>
    <rdf:Alt>
     <rdf:li xml:lang="x-default">02 Classic Chrome</rdf:li>
    </rdf:Alt>
   </crs:ShortName>
   <crs:SortName>
    <rdf:Alt>
     <rdf:li xml:lang="x-default">02 Classic Chrome</rdf:li>
    </rdf:Alt>
   </crs:SortName>
   <crs:Group>
    <rdf:Alt>
     <rdf:li xml:lang="x-default">CinemaxMK Fuji Retro</rdf:li>
    </rdf:Alt>
   </crs:Group>
   <crs:Description>
    <rdf:Alt>
     <rdf:li xml:lang="x-default">Muted documentary look inspired by the Classic Chrome film simulation: desaturated steel-cyan blues, deeper reds, hard shadows with soft highlights and a magazine-print feel.</rdf:li>
    </rdf:Alt>
   </crs:Description>
   <crs:ToneCurvePV2012>
    <rdf:Seq>
     <rdf:li>0, 6</rdf:li>
     <rdf:li>48, 40</rdf:li>
     <rdf:li>128, 128</rdf:li>
     <rdf:li>200, 205</rdf:li>
     <rdf:li>255, 250</rdf:li>
    </rdf:Seq>
   </crs:ToneCurvePV2012>
   <crs:ToneCurvePV2012Red>
    <rdf:Seq>
     <rdf:li>0, 0</rdf:li>
     <rdf:li>255, 250</rdf:li>
    </rdf:Seq>
   </crs:ToneCurvePV2012Red>
   <crs:ToneCurvePV2012Green>
    <rdf:Seq>
     <rdf:li>0, 2</rdf:li>
     <rdf:li>255, 252</rdf:li>
    </rdf:Seq>
   </crs:ToneCurvePV2012Green>
   <crs:ToneCurvePV2012Blue>
    <rdf:Seq>
     <rdf:li>0, 6</rdf:li>
     <rdf:li>128, 130</rdf:li>
     <rdf:li>255, 250</rdf:li>
    </rdf:Seq>
   </crs:ToneCurvePV2012Blue>
  </rdf:Description>
 </rdf:RDF>
</x:xmpmeta>
